X:16
T:El Sicuri
R:waynu
O:Bolivia?
Z:id:hn-waynu-16
M:2/4
L:1/8
Q:1/4=90
K:Em
[M:3/4] BB ee/ee/d |[M:2/4] e>e e/gg/ | g/edB/A | B>B B/dd/ | d/BAG/E |
[M:3/4] G>G F/AA/ A/G/F/E/ | [M:2/4] D3/EF/G/F/ | E/e/B/e/ Be :|
|: G/BB/ A/AA/ |[M:3/4] dd/eB/A G>G |[M:2/4] G/BB/ A/AA/ |
[M:3/4] dd/eB/A G>G |[M:2/4] F/AA/ A/G/F/E/ | D3/EF/G/F/ | E/e/B/e/ Be :|

